**kern	**kern	**dynam
*part1	*part1	*part1
*staff2	*staff1	*
*I"Piano	*	*
*clefF4	*clefG2	*
*k[]	*k[]	*
=1	=1	=1
(4.GGG' 4.GG	8cL 8d	p <
.	8c 8d	.
.	8cJ 8d	[
4.GGG' 4.GG	8BL 8f	>
.	8B 8f	.
.	8BJ 8f	.
=	=	=
4GGG') 4GG	4c 4e	]
8r	8r	.
4r	4r	.
8r	8G 8c 8e	pp
=	=	=
*	*^	*
!	!	!	!LO:DY:a
(4.GGG' 4.GG	(2.f	8AL 8c	>
.	.	8A 8c	.
.	.	8AJ 8c	.
(4.GGG') 4.GG	.	8BL 8d	.
.	.	8B 8d	.
.	.	8BJ 8d	.
=	=	=	=
4CC) 4GG	4c	4e)	]
*	*v	*v	*
8r	8r	.
4r	4r	.
8r	8r	.
=	=	=
*^	*^	*
4.G	4.E	(4.cc	4.c	p
4.B-X	4.E	4.g	4.c	.
=	=	=	=	=
4.A	4.F	4.a	4.c	.
*v	*v	*	*	*
4.A	16%3eL)	4.c	.
.	16%3fJ	.	.
=	=	=	=
*^	*	*	*
!	!	!	!	!LO:DY:a
[4.G	2.G	(4.e	4.c	<
4.GG	.	8dL	4.Bn	[
.	.	8e	.	.
.	.	8fJ	.	.
*v	*v	*	*	*
*	*v	*v	*
=	=	=
*-	*-	*-
!!!system-decoration: {(s1,s2)}
